X:1
T:Bagnolet, 98.98
T:Bagnolet, 98.98
T:John H. Kissinger, 1893
T:Public Domain Courtesy of the Cyber Hymnal™
C:John H. Kissinger, 1893
Z:Public Domain
Z:Courtesy of the Cyber Hymnal™
%%score ( 1 2 ) ( 3 4 )
L:1/8
Q:1/4=85
M:6/8
K:G
V:1 treble 
V:2 treble 
V:3 bass 
V:4 bass 
V:1
 [B,D] | [DB][DA][DG] GF[DG] | [EA]3 [CE]2 [CE] | [B,D][DG][DG] [DB][DA][EG] | [FA]3- [FA]2 [Ac] | %5
 [GB][GA]G G[GA][GB] | [Gc]3 [CE]2 [CE] | [B,D][DG][DG] [DF][DG][DA] | [DG]3- [DG]2 |] %9
V:2
 x | x3 D2 x | x6 | x6 | x6 | x2 G G x2 | x6 | x6 | x5 |] %9
V:3
 [G,,G,] | [G,,G,][A,,F,][B,,G,] [B,,G,][A,,A,][G,,B,] | [C,C]3 [C,G,]2 [E,G,] | %3
 G,[G,B,][G,B,] [G,D][F,D][E,^C] | [D,D]3- [D,D]2 [D,D] | [G,D][G,C][G,B,] [G,B,][G,C][G,D] | %6
 [C,E]3 [C,G,]2 [C,G,] | [D,G,][D,B,][D,B,] [D,A,][D,B,][D,C] | [G,,B,]3- [G,,B,]2 |] %9
V:4
 x | x6 | x6 | G, x5 | x6 | x6 | x6 | x6 | x5 |] %9

